X:173
T:Something New. JJo8.173
%%VWML:JohnsonVol8-2184-p87-0
F:http://www.vwml.org/record/JohnsonVol8/2184/p87
Z:Transcribed by Simon Furey and Lewis Jones
Z:vmp.Simon Wilson 2013 www.village-music-project.org.uk
Z:Dance added by John Chambers 2017
M:9/8
L:1/8
%Q:3/8=130
K:Bb
|:\
B3 BFD F3 | B3 BFD EFG |\
B3 BFD E2E | DEF GAB ABc :|
|:\
B3 fdf F3 | B3 fdf gab |\
B3 fdf F3 | DEF GAB ABc :|
W: Turn right hands and cast off one Cu .|
W:turn left hands and up again :| half
W:figure down on your own sides .| the
W:same up again ..| Lead down two Cu.
W:and cast up one .| Lead thro the Top
W:and cast off :| Hands across at Bottom
W:.| Right and Left at Top :|
W:
T:Wild Goose Chace. JJo8.174
B:J.Johnson Choice Collection Vol 8 1758
Z:vmp.Simon Wilson 2013 www.village-music-project.org.uk
Z:Dance added by John Chambers 2017
M:2/4
L:1/8
%Q:1/2=75
K:Bb
|: B |\
dfdB | egec | dfdB | AcAF |\
dfdB | egec | dBFA | B3 :|
|: B |\
FBFD | EcAE | DFEG | FDCB, |\
FBFD | EcAE | DBCA | B3 :|
|: f |\
dffb | bfdB | cdef | gBAF |\
Ge2G | Fd2F | EcFA | B3 :|
W:  First Cu. cast off two Cu. lead up and
W:cast off :| hands 4 round at Bottom,
W:the same at top :| whole figure, Wo.
W:at top and Man at Bottom, Right
W:and Left with the 2d Cu.
W:
